resources/haticons/SVG/sim_card1.svg

<!-- Generated by IcoMoon.io -->
<svg version="1.1" xmlns="http://www.w3.org/2000/svg" width="24" height="24" viewBox="0 0 24 24">
<title>sim_card1</title>
<path d="M17.016 15v-3.984h-2.016v3.984h2.016zM12.984 12.984v-1.969h-1.969v1.969h1.969zM12.984 18.984v-3.984h-1.969v3.984h1.969zM9 15v-3.984h-2.016v3.984h2.016zM17.016 18.984v-1.969h-2.016v1.969h2.016zM9 18.984v-1.969h-2.016v1.969h2.016zM19.969 3.984l0.047 16.031q0 0.797-0.609 1.383t-1.406 0.586h-12q-0.797 0-1.406-0.586t-0.609-1.383v-12l6-6h8.016q0.797 0 1.383 0.586t0.586 1.383z"></path>
</svg>

<svg xmlns="http://www.w3.org/2000/svg" width="24" height="24"><path d="M17.016 15v-3.984H15V15h2.016zm-4.032-2.016v-1.969h-1.969v1.969h1.969zm0 6V15h-1.969v3.984h1.969zM9 15v-3.984H6.984V15H9zm8.016 3.984v-1.969H15v1.969h2.016zm-8.016 0v-1.969H6.984v1.969H9zm10.969-15l.047 16.031q0 .797-.609 1.383t-1.406.586h-12q-.797 0-1.406-.586t-.609-1.383v-12l6-6h8.016q.797 0 1.383.586t.586 1.383z"/></svg>
